X:1
T:Lytham, CM
T:Lytham, CM
T:James Thomas Lightwood, ca. 1900
T:Public Domain Courtesy of the Cyber Hymnal™
C:James Thomas Lightwood, ca. 1900
Z:Public Domain
Z:Courtesy of the Cyber Hymnal™
%%score ( 1 2 ) ( 3 4 )
L:1/8
Q:1/4=110
M:4/4
K:Ab
V:1 treble 
V:2 treble 
V:3 bass 
V:4 bass 
V:1
 [Ec]2 | [DB]2 [CA]2 E2 [CA]2 | [DA]3 [DG] [DG]2 [DF]2 | [DE]2 (FG) [EA]2 [EB]2 | [Ec]6 [Ec]2 | %5
 [Ec]2 [EF]2 [=DF]2 (Bc) | [DB]2 [DE]2 [CE]2 (AB) | [EA]2 (GF) [EG]2 [DB]2 | [CA]6 |] %9
V:2
 x2 | x4 E2 x2 | x8 | x2 D2 x4 | x8 | x6 =D2 | x6 =D2 | x2 E2 x4 | x6 |] %9
V:3
 [A,,E,]2 | (F,G,) [A,,A,]2 [C,A,]2 [A,,A,]2 | [B,,E,]3 [B,,E,] [B,,E,]2 [B,,A,]2 | %3
 [E,G,]2 (A,B,) [E,C]2 [E,G,]2 | [A,,A,]6 A,2 | [F,=A,]2 [F,A,]2 [B,,B,]2 [B,,B,]2 | %6
 [E,G,]2 [E,G,]2 [A,,A,]2 [F,B,]2 | [E,C]2 B,A, [E,B,]2 [E,G,]2 | [A,,A,]6 |] %9
V:4
 x2 | A,,2 x6 | x8 | x2 E,2 x4 | x6 A,2 | x8 | x8 | x2 E,2 x4 | x6 |] %9

